X:1
T:Hugo Distler 1908 - 1942
T:Ich wollt, daß ich daheime wär
%%score [ ( 1 2 3 ) ( 4 5 ) 6 ( 7 8 ) ]
L:1/8
Q:1/4=60
M:4/4
K:G
V:1 treble nm="Sopran"
V:2 treble 
V:3 treble 
V:4 treble nm="Alt"
V:5 treble 
V:6 treble-8 nm="Tenor"
V:7 bass nm="Bass"
V:8 bass 
V:1
"^Sehr ruhige Viertel"!pp! E2 | A2 (GE) D2 D2 x | G2 A2 B2"^," G2 x2 | c2 (BA) E3 A | %4
w: Ich|wollt, daß * ich da-|hei- me wär und|al- ler * Wel- te|
[M:4/4] (GE) F2 E4- |[M:2/4] E4 ||[M:4/4]"^(Dasselbe Zeitmaß)" z2 z!p!"^poco" B BBdB | %7
w: Trost * ent- behr.||Ich mein da- heim im|
[M:3/2] (3(efg (3:2:2f2) d (ce- (3edB (3AG(Bx))"^,"B- | %8
w: Him * * * mel- reich, * * * * * * * da|
[M:4/4] BAe"^*)""^*) keine Triole\n**) Ja keinen falschen Akzent" (e>fg e>f) |[M:3/2] x12 | %10
w: * ich Gott schau * * * *||
[M:2/4]"^Ein wenig gehender" z4 ||[M:4/4] x8 | x8 | x8 | %14
w: ||||
[M:4/4] z4 z2!mp!"^(Dasselbe Zeitmaß)" E2 x2 | A2 (GE) D2 D2 x | G2 A2 B2"^," G2 x | %17
w: Denn|al- le * Welt ist|dir zu klein, du|
 c2 (BA) E2 A2 | %18
w: kom- mest * denn erst|
[M:3/2] E2 F2 ^G6"^*)""^*) Nach Belieben völliger Neueinsatz der folgenden Variation" z!f!"^Sehr bewegt. Extatisch" A || %19
w: wie- der heim. Da-|
[M:4/4] e2 d2 A2 Ag- |[M:4/4] ge (3(^fde- e)"^,"e g4 | g2 e2 B2 c2 | %22
w: heim ist Le- ben oh-|* ne Tod * * * und gan-|ze Freu- de oh-|
 d2 e2"^(Dasselbe Zeitmaß)" B3 B x | B2 d4 x2 | B2 G4 F2 x2 | E2"^," E2 e4 |"^," e3 e d^c B2- | %27
w: ne Not. Da sind|doch tau-|send Jahr wie|heut und nichts,|nichts, was dich ver- drießt\_\_|
[M:2/4]"^(Übergang ohne Halt!)" BA B!f!"^meno"B | %28
w: \_\_ noch reut. Wohl-|
[M:4/4]"^Ruhiger, ausgeglichen,\ndoch noch sehr fließend" c2 c2 c2 (BA) x | B2 B2 B2"^," (AG) | %30
w: auf, mein Herz und *|all mein Mut und *|
 A2 A2 A2 (GF) |"^(ruhig)" (G3 A B2 A4 | G2) F4 E2 x2 | %33
w: such das Gut ob *|al- * * *|* lem Gut!|
!p!"^Sehr ruhig, wie zu Anfang""^*)""^**)" E2- (3E=FE (3:2:2(A2 B-) x2 | %34
w: Du * hast doch hie *|
 (B/A/)=F"^,""^***)" (E/E/=F/ A E/ F/ A B/ e | B/A/B/ed/B A)GB (B3/2 | %36
w: * * kein Blei * * * * * * * *|* * * * * * * ben nicht, obs|
 c/)"^," B3/2B/>c/d/c/ B/A/=F c/B- x/ |(x/x/x/xx/)A x4- x2 | %38
w: * mor * * * * * gen o- der heut\_|ge- schicht.|
 x2 x2 x2!p!"^*)""^*) Ja keinen falschen Akzent" x2 | x8 | G2 A2 B2"^," G2 x2 | c2 (BA) E2 A2 | %42
w: ||nicht mag sein, so|fleuch der * Welt viel|
 E2 F2"^(ruhig!)" (E/D/ E2)!pp! E |"^Noch ruhiger, Langsam" A2 (GE) D2 D2 | G2 A2 B2"^," G2 x2 | %45
w: fal- schen Schein. * * A-|de, Welt, * Gott ge-|seg- ne dich! Gen|
 c2 (BA) E3 A | (GE) F2 E4- x4 | E6 |] %48
w: Him- mel- * reich nun|fah * re. ich.||
V:2
 x2 | x9 | x10 | x8 |[M:4/4] x8 |[M:2/4] x4 ||[M:4/4] x8 |[M:3/2] x4 x4 (3x x x B x |[M:4/4] x8 | %9
w: |||||||||
[M:3/2] (3xxx (3xxx e3 d c2 c2 |[M:2/4] B4 ||[M:4/4] z8 | z8 | z8 |[M:4/4] x10 | x9 | x9 | x8 | %18
w: * e e- wig-|lich.||||||||
[M:3/2] E2 F2 E6 x A ||[M:4/4] x8 |[M:4/4] x8 x2 | x4 e2 B2 | B2 A2 B2 B3 | x4 x4 | x10 | x8 | x8 | %27
w: |||||||||
[M:2/4] x4 |[M:4/4] x9 | x8 | x8 | x10 | x10 | x8 | x8 | x2 x2 x2 x x x/ | x8 | %37
w: ||||||||||
 (B/c/d/cB/ A2) A"^(Dasselbe Zeitmaß)" x2- x2 | x2 z2 z2 E2 | A2 (GE) D2 D2 | x10 | x8 | x8 | x8 | %44
w: * * * * * * ge- schicht.|Da|es denn * an- ders|||||
 x10 | x8 | x12 | x6 |] %48
w: ||||
V:3
 x2 | x9 | x10 | x8 |[M:4/4] x8 |[M:2/4] x4 ||[M:4/4] x8 |[M:3/2] x12 |[M:4/4] x8 | %9
w: |||||||||
[M:3/2] (3geg (3fed e4 e4 |[M:2/4] x4 ||[M:4/4] x8 | x8 | x8 |[M:4/4] x10 | x9 | x9 | x8 | %18
w: * * (schau) * * * * e|||||||||
[M:3/2] x12 ||[M:4/4] x8 |[M:4/4] x10 | x8 | x9 | x8 | x10 | x8 | x8 |[M:2/4] x4 |[M:4/4] x9 | x8 | %30
w: ||||||||||||
 x8 | x10 | x10 | x8 | x8 | x17/2 | x8 | x10 | x8 | x8 | x10 | x8 | x8 | x8 | x10 | x8 | x12 | %47
w: |||||||||||||||||
 x6 |] %48
w: |
V:4
!pp! E2 | (=F A2 B>AG =F) E2 | E E2 A2 G2 F3 |"^," =F E2 c2 x3 |[M:4/4] B2 A2 G2 F2 | %5
w: Ich|wollt, * * * * * daß|ich da- hei- me wär|und al- ler|Wel- te Trost ent-|
[M:2/4] E2!p!"^poco" E2 ||[M:4/4] A2 (GE) D2 D2 |[M:3/2] x12 |[M:4/4]"^**)" x8 | %9
w: behr. Ich|mein, da- * heim im|||
[M:3/2] (E2 F2 E2 B4) A2- |[M:2/4] A2 G2 ||[M:4/4] z8 | z8 | z8 |[M:4/4] z4 z2!mp! B,2 x2 | %15
w: e * * * wig-|* lich.||||Denn|
 E2 E2 B,2 B,2 x | E2 E2 B,2"^," B,2 x | E2 E2 B,2 B,2 |[M:3/2] E2 E2 B,6!f! E2 || %19
w: al- le Welt ist|dir zu klein, du|kom- mest denn erst|wie- der heim. Da-|
[M:4/4] A2 (GE) D2 D2 |[M:4/4] G2 A2 B2"^," G2 x2 | c2 (BA) E2 A2 | E2 =F2 E2 E2 x | %23
w: heim ist * Le- ben|oh- ne Tod und|gan- ze * Freu- de|oh- ne Not. Da|
 A2 (GE) D2 D2 | G3 A B2"^," G2 x2 | c2 (BA) E2 A2 | E2 =F2 E4- |[M:2/4] E2"^meno"!f! B2 | %28
w: sind doch * tau- send|Jahr wie heut und|nichts, was * dich ver-|drießt noch reut.\_\_\_\_\_\_\_\_\_\_\_\_|\_\_ Wohl-|
[M:4/4] B2 (AG) AA A3 | G ^F2"^," G4 x | G2 FE F4 | (F3 EFG) (A4 | B2) A4 G4 | z4 x4 | z8 | z8 x/ | %36
w: auf, mein * Herz und all-|* mein Mut|und such das Gut|ob * * * al-|* lem Gut!||||
 z8 | z4 z2!p!"^*)" B,2 x2 | E2 (DB,) A,2 A,2 | D2 E2 F4- | F2"^," D2 G2 (FE) x2 | B,2 E2 B,2 A,2 | %42
w: |Da|es den * an- ders|nicht mag sein,|\_\_ so fleuch der *|Welt viel fal- schen|
 (B,3 D B,2)!pp! E2 | =F A2 B>AGFE- | EEEE A2 G2 x2 | F3"^," =F E2 c2 | B2 A2 G2 F2 x4 | E6 |] %48
w: Schein. * * A-|de, * * * * * *|* Welt, Gott ge- se- gne|dich! Gen Him- mel-|reich nun fah- re|ich.|
V:5
 x2 | x9 | x10 | x8 |[M:4/4] x8 |[M:2/4] x4 ||[M:4/4] x8 |[M:3/2] G2 A2 B4 z2 G2 | %8
w: |||||||Him- mel- reich, da|
[M:4/4] c2 (BA) E2 G2 |[M:3/2] (E2 F2 E4) D4 |[M:2/4] E4 ||[M:4/4] x8 | x8 | x8 |[M:4/4] x10 | x9 | %16
w: ich Gott * schau- e|e * * wig-|lich.||||||
 x9 | x8 |[M:3/2] x12 ||[M:4/4] x8 |[M:4/4] x10 | x8 | x9 | x8 | x10 | x8 | x8 |[M:2/4] x4 | %28
w: ||||||||||||
[M:4/4] x9 | x8 | x8 | x10 | x10 | x8 | x8 | x17/2 | x8 | x10 | x8 | x8 | x10 | x8 | x8 | x8 | %44
w: ||||||||||||||||
 x10 | x8 | x12 | x6 |] %48
w: ||||
V:6
!pp! A2 | c2 B3 B A2 x | G2 ^F2 E"^,"E e4 | d2 B2 B2 x2 |[M:4/4][K:treble-8] e2 d2 (BA (B2 | %5
w: Ich|wollt daß ich da-|hei- me wär und al-|ler Wel- te|Trost ent- behr. * *|
[M:2/4] B4)) ||[M:4/4] z8 |[M:3/2][K:treble-8] z12 |[M:4/4] z8 |[M:3/2] z12 | %10
w: |||||
[M:2/4][K:treble-8] z2!p! B2 ||[M:4/4] e2 e2 B2 B2 | e2 e2 B2"^," B2 | e2 e2 B2 B2 | %14
w: Wohl|auf mein Seel, und|richt dich dar, dort|war- tet dein der|
[M:4/4][K:treble-8] e2 (e2 B6) |!mp!"^*)""^*) Gleichsam psalmodierend" B3 B A2 BB x | BB B6 x | %17
w: En- gel Schar.|Denn al- le Welt ist|dir zu klein,|
"^," B2 BB BB- x2 |[M:3/2][K:treble-8] BB A2 B6 z!f! A ||[M:4/4] c2 _B2 =f2 e2 | %20
w: du kom- mest denn erst\_\_|\_\_ wie- der heim. Da-|heim ist Le- ben|
[M:4/4][K:treble-8] d2 c2 =B"^,"B G4 | E2 (BA B3) B | B3 A G2 z2 x | E2 A2 (GE) x2 | %24
w: oh- ne Tod und gan-|ze Freu * * de|oh- ne Not.|Da sind doch *|
 D2 D2 G3 A x2 | B2"^," G2 c2 (BA) | E2 A2 E2 F2 |[M:2/4][K:treble-8] ^G2"^meno"!f! B2 | %28
w: tau- send Jahr wie|heut und nichts was *|dich ver- drießt noch|reut. Wohl-|
[M:4/4] e2 e2 =f2 f2 x | d2 d2 e3"^," e | c2 c2 d2 d2 | B2 B2 (c3 B x2 | cd e3 d c2 x2 | %33
w: auf mein Herz und|all mein Mut und|such das Gut ob|al- lem Gut! *||
 B4) z2!p! E2 | A2 (GE) D2 D2 | G2 A2 B2 G2 x/ | c2 (BA) E2 A2 | E2 ^F2 E6 | z2 z2!p! B3 B | %39
w: * Du|hast doch * hie kein|Blei- ben nicht, obs|mor- gen * o- der|heut ge- schicht|Da es|
 B2 B3 B x2 | d2 e2 B"^,"B B4 | B2 (g>f e c2) c | ^FF"^(ruhig!)" (B/A/ B2)!pp! A c2 | B3 B A2 x2 | %44
w: denn an- ders|nicht mag sein, so fleuch|der Welt * * * viel|fal- schen Schein. * * A- de,|Welt, Gott ge-|
 G2 F2 E"^,"E e4 | d2 B2 B2 e2 | d2 (BA B2- B6) | x6 |] %48
w: seg- ne dich! Gen Him-|mel- reich nun fah-|re ich. * * *||
V:7
 z2 | z2 z!pp! E, E,E,>E,E, x | C3 C B,6 |"^," G,2 C2 (B,A,) x2 |[M:4/4] E,2 A,2 E,2 D,2 | %5
w: |Ich wollt, daß ich da-|hei- me wär|und al- ler *|Wel- te Trost ent-|
[M:2/4] E,4 ||[M:4/4] z8 |[M:3/2] z12 |[M:4/4] z8 |[M:3/2] z12 |[M:2/4] x4 ||[M:4/4] x8 | x8 | %13
w: behr.||||||||
 x4 E,3 F, |[M:4/4] G,2 A,2 B,2!mp!!mp! E,2 x2 | D,2 C,2 B,,2 E,3 | D, C,2 B,,2"^," B,2 A,2 | %17
w: dein der|En- gel Schar, Denn|al- le Welt ist|dir zu klein, du kom-|
 A,2 G,2 F,2 x2 |[M:3/2] E,2 D,2 E,6 z2 ||[M:4/4] z!f! E,=F,E, D3 C | %20
w: mest denn erst|wie- der heim.|Da- heim ist Le- ben|
[M:4/4] B,2 A,2 E,2"^," E,2 x2 | _E,2 D,2 ^C,2 =C,2 | B,2 B,,2 (G,^F, E,2) x | z2 B,3 B, B,2 | %24
w: oh- ne Tod und|gan- ze Freu- de|oh- ne Not. * *|Da sind doch|
 D4 B,2 G,4 | F,2 E,2"^," D2 CC | B,A, G,2 A,2 x2 |[M:2/4] E,2"^meno"!f! E,2 | %28
w: tau- send Jahr|wie heut und nichts, was|dich ver- drießt noch|reut. Wohl-|
[M:4/4] A,2 (G,E,) D,2 D,2 x | G,2 A,2 B,2"^," G,2 | %30
w: auf, mein * Herz und|all mein Mut und|
"^*) Nach Belieben Neueinsatz""^**) Mit wenigen oder Einzelstimmen besetzen" C2 (B,A,) E,2 A,2 | %31
w: such das * Gut ob|
 E,8- x2 | E,4 D,4 x2 | E,4 z4 | %34
w: al-|* lem|Gut!|
"^***) Achtel, Sechzehntel und Zweiunddreißigstel genau auszählen! Keine Triolenbewegung" z8 | %35
w: |
 z8 x/ | z8 | z4 z2!p! B,3 x | B, A,2 =F,2 E,3 | D, C,2 B,,4 x | z2 B,,2 B,,2 B,,2 x2 | %41
w: ||Da|es denn an- ders|nicht mag sein|so fleuch der|
 E,3 D, C,2 A,,2 | [E,,E,]8 | z2 z!pp! E, E,E,>E,E, | x8 x2 |"^," x8 | x4 E,2 F,2 x4 | ^G,6 |] %48
w: Welt viel fal- schen|Schein.|A- de, Welt, Gott ge-|||fah- re|ich.|
V:8
 x2 | x9 | x10 | x8 |[M:4/4] x8 |[M:2/4] x4 ||[M:4/4] x8 |[M:3/2] x12 |[M:4/4] x8 |[M:3/2] x12 | %10
w: ||||||||||
[M:2/4] z2!p! E,2 ||[M:4/4] B,2 (G,E,) D,2 D,2 | G,2 A,2 B,2"^," G,2 | C2 (B,A,) E,2 A,2 | %14
w: Wohl|auf mein * Seel, und|richt dich dar, dort|war- tet * dein der|
[M:4/4] E,2 F,2 E,2 E,2 x2 | D,2 x2 x4 x | x8 x | x8 |[M:3/2] x12 ||[M:4/4] x8 |[M:4/4] x10 | x8 | %22
w: ||||||||
 x9 | x8 | x10 | x8 | x8 |[M:2/4] x4 |[M:4/4] x9 | x8 | x8 | x10 | x10 | x8 | x8 | x17/2 | x8 | %37
w: |||||||||||||||
 x10 | x8 | x8 | x10 | x8 | x8 | x8 | C3 C B,6 | G,2 C2 (B,A,) E,2 | A,2 E,2 D,2 E,6 | x6 |] %48
w: |||||||seg- ne dich!|Gen Him- mel * reich|nun * * *||

